X: 043
T: Rural Felicity
T: aka (Come) Haste to the Wedding
T: aka Carrickfergus
N: aka Haste to the Wedding
%R: jig
Z: 2017 John Chambers <jc:trillian.mit.edu>
B: John Treat - "Gamut for the Fifes", 1779, p.3 #3
F: https://archive.org/details/GamutFortheFifes
M: 6/8
L: 1/8
K: D
% - - - - - - - - - - - - - - - - - - - - - - - - -
A |\
AFG Aaf | ede fdB | DFD BdF | EEE E2A |\
AFG Aag | ede fdB | AFA faf | ddd d2 :|
|: (3(F/G/A/ |\
d2)f fdf | geg geg | afa agf | eee e3 |\
a3 f3 | ede fdB | AFA faf | ddd d2 :|
% - - - - - - - - - - - - - - - - - - - - - - - - -
